X:503
%%etbk:tnset id:233,pos:2,rep:3x,ant:
%%etbk:video src:ytube,cde:tCU07LkzSvE,desc:third tune
%%etbk:pldat 2014-12-30T18:06,2014-12-11T18:47,2014-05-04T10:53,2014-05-01T18:49,2014-04-30T17:32,2014-02-18T18:34,2014-02-13T18:56,2014-02-08T13:35,2014-02-07T16:13,2013-11-06T18:05,2013-10-02T18:04,2013-09-30T18:46,2013-09-26T14:43,2013-09-17T11:12,2013-09-15T15:35
T:Darby's Farewell To London
Z: Piano Box Version by Martin Fleischmann
H: Created 2013-09-08 /  Last Modified 2014-02-13
C:Josie McDermott
M:4/4
L:1/8
R:reel
K:Gmaj
|:!5!B!3!G!2!EG !1!DE!3!G!4!A| !3!BG!5!dG !5!eGdG| !3!B!1!E!2!E!2!E !1!DE!3!G!4!A|!3!BG!5!dB !1!GGGA|
|1 !5!B!3!G!2!EG !1!DE!3!G!4!A| !3!BG!5!dG !5!eG!5!dG|!3!B!1!G!2!G!2!G !1!E!3!G!1!D!3!G|!2!FGAF !1!G2ed:|
|2!5!B!3!G!2!G!3!G !1!E!3!G!2!G!3!G| !1!D!3!GGG !2!F!1!GA!4!c| !3!B!1!G!2!GG !1!E!3!G!1!D!3!G | !2!FGAF !1!GGG2||
|:!2!BAB!4!d !2!e!4!ggg | !2!e!5!aag !2!ef!4!g2 | !1!G2!2!B!3!d !5!g!3!de!5!g | !3!d!2!B!1!A!2!B !1!G!2!E!1!Dz|
BABd eggg | eaag efgz| !5!b2!3!gg !2!e!4!g!1!d!2!B | !1!A3d !1!GGG2:|


